src/16/panel/update-none.svg

<svg xmlns="http://www.w3.org/2000/svg" width="16" height="16" version="1.1">
 <defs>
  <style id="current-color-scheme" type="text/css">
   .ColorScheme-Text { color:#bebebe; } .ColorScheme-Highlight { color:#5294e2; }
  </style>
 </defs>
 <path style="fill:currentColor" class="ColorScheme-Text" d="M 7,1 A 7,7 0 0 0 0,8 7,7 0 0 0 7,15 7,7 0 0 0 14,8 7,7 0 0 0 7,1 Z M 10.385,4.582 C 10.468,4.582 10.55,4.6141 10.613,4.6777 L 11.568,5.6328 C 11.696,5.7602 11.696,5.9645 11.568,6.0918 L 7.3828,10.277 6.3711,11.289 6.3145,11.346 C 6.2195,11.441 6.0639,11.441 5.9687,11.346 L 5.9121,11.289 4.957,10.334 2.0723,7.4492 C 1.9768,7.3542 1.9768,7.1985 2.0723,7.1035 L 3.1406,6.0352 C 3.2361,5.9396 3.3908,5.9396 3.4863,6.0352 L 6.1426,8.6914 10.154,4.6777 C 10.218,4.6141 10.302,4.582 10.385,4.582 Z"/>
</svg>

<svg xmlns="http://www.w3.org/2000/svg" width="16" height="16"><defs><style id="current-color-scheme" type="text/css"></style></defs><path d="M7 1a7 7 0 0 0-7 7 7 7 0 0 0 7 7 7 7 0 0 0 7-7 7 7 0 0 0-7-7zm3.385 3.582a.32.32 0 0 1 .228.096l.955.955a.322.322 0 0 1 0 .459l-4.185 4.185-1.012 1.012-.057.057a.245.245 0 0 1-.345 0l-.057-.057-.955-.955-2.885-2.885a.244.244 0 0 1 0-.345l1.069-1.069a.244.244 0 0 1 .345 0l2.657 2.656 4.011-4.013a.328.328 0 0 1 .231-.096z" fill="currentColor" color="#bebebe"/></svg>
